X: 271
T:Lulle me beyond thee
G:song or dance
M:6/8
L:1/8
Q:3/8=96
K:DMin
A2A  f>ef|g>fg a3 |A2A f>ed|^c3 d3:|
f2f  g>fg|a>ba g2c|f2f g>fg| a3 g3 |
a>ba g>fe|f>ed a3 |A2A f>ed|^c3 d3|]

John Hamilton gave it new words early in the 19th century, with a dorian
first half and the second half in the minor with sharpened leading note:

